X:3073
T:Spel-Görans vals
O:Blekinge
M:3/4
L:1/8
K:Gm
R:Vals
Q:180
D2| D2 G3/2G/2 G2 | ^F2 A3/2A/2 A2 | B2 dB AG | G^F A^F D2 | DG GG G2 | ^FA AA A2 | B2 dB A^F | G4  :|
AB | c2 Bc dB | F4 AB | c2 Bc dB | G4 D2 | D2 GG GA | B4 AG | G2 ^FG A^F | G4 :|
(:musicend:)
(:music:)
